!!!OTL: O DANNEBOM O DANNEBOM
!!!ARE: Europa, Mitteleuropa, Deutschland, Paderborn
!!!SCT: E0175C
!!!YEM: Copyright 1995, estate of Helmut Schaffrath.
**kern
*ICvox
*Ivox
*M4/4
*k[f#c#g#d#]
*E:
{4B
=1
4e
4b
4b
4b
=2
4b
4a
4a}
{4a
=3
4gn
4gn
4b
8a
8gn
=4
2f#
4r}
{4f#
=5
2gn
4b
4gn
=6
2a
4ccn}
{4a
=7
4gn
4gn
4f#
4f#
=8
2e
4r}
==
!!!AGN: erzaehlendes Volks - Lied, Sage, Pflanzen - Maerchen
!!!ONB: ESAC (Essen Associative Code) Database: ERK1
!!!AMT: simple quadruple
!!!AIN: vox
!!!EED: Helmut Schaffrath
!!!EEV: 1.0
*-
